assets/images/vk.svg

<svg width="22" height="12" viewBox="0 0 22 12" fill="none" xmlns="http://www.w3.org/2000/svg">
<path d="M21.1367 0.527182H17.5667C17.421 0.527181 17.278 0.565158 17.153 0.637072C17.0279 0.708986 16.9255 0.812145 16.8566 0.935573C16.8566 0.935573 15.4327 3.45639 14.9754 4.30545C13.7449 6.58952 12.9482 5.87247 12.9482 4.81241V1.15732C12.9482 0.85189 12.822 0.558968 12.5973 0.342995C12.3726 0.127022 12.0679 0.00569023 11.7502 0.00569023H9.06601C8.70047 -0.0204368 8.33405 0.0437042 8.00155 0.192022C7.66905 0.340339 7.38152 0.567908 7.16625 0.853114C7.16625 0.853114 8.52924 0.641264 8.52924 2.40672C8.52924 2.8445 8.5527 4.10389 8.57407 5.1602C8.5781 5.31586 8.53235 5.46895 8.44299 5.59882C8.35364 5.72869 8.22498 5.82908 8.0744 5.88643C7.92381 5.94378 7.75854 5.95533 7.60091 5.91952C7.44328 5.88371 7.30087 5.80227 7.19292 5.68618C6.09424 4.21723 5.18417 2.62608 4.48248 0.947296C4.42222 0.821713 4.32575 0.715382 4.20451 0.640918C4.08328 0.566454 3.94238 0.526981 3.79851 0.527182C3.02428 0.527182 1.47499 0.527182 0.554909 0.527182C0.465689 0.526598 0.377655 0.546845 0.29837 0.586184C0.219086 0.625523 0.150921 0.682777 0.0997321 0.753027C0.0485432 0.823277 0.0158607 0.904424 0.0044924 0.989496C-0.00687595 1.07457 0.00340971 1.16102 0.0344657 1.24143C1.01938 3.83852 5.26208 12 10.1047 12H12.1429C12.3565 12 12.5613 11.9184 12.7123 11.7733C12.8633 11.6281 12.9482 11.4312 12.9482 11.2259V10.0428C12.9482 9.89433 12.9933 9.74915 13.0781 9.6251C13.1629 9.50106 13.2836 9.40356 13.4253 9.34464C13.567 9.28571 13.7235 9.26792 13.8756 9.29347C14.0277 9.31902 14.1687 9.38678 14.2812 9.48841L16.7209 11.6919C16.94 11.8898 17.2293 12 17.53 12H20.7336C22.2788 12 22.2788 10.9693 21.4363 10.1717C20.8435 9.61041 18.7041 7.44261 18.7041 7.44261C18.5209 7.26015 18.4116 7.02072 18.396 6.76757C18.3804 6.51442 18.4595 6.26426 18.619 6.06229C19.3106 5.18748 20.4416 3.75548 20.9213 3.14201C21.577 2.30352 22.7637 0.527182 21.1367 0.527182Z" fill="white"/>
</svg>

<svg width="22" height="12" fill="none" xmlns="http://www.w3.org/2000/svg"><path d="M21.137.527h-3.57a.83.83 0 00-.414.11.789.789 0 00-.296.299s-1.424 2.52-1.882 3.37c-1.23 2.284-2.027 1.566-2.027.506V1.157a1.13 1.13 0 00-.35-.814 1.223 1.223 0 00-.848-.337H9.066a2.226 2.226 0 00-1.064.186c-.333.148-.62.376-.836.661 0 0 1.363-.212 1.363 1.554 0 .438.024 1.697.045 2.753a.74.74 0 01-.131.439.786.786 0 01-.369.287.821.821 0 01-.473.034.798.798 0 01-.408-.234A22.22 22.22 0 014.483.947a.732.732 0 00-.278-.306.774.774 0 00-.406-.114H.555A.57.57 0 00.1.753a.518.518 0 00-.066.488C1.02 3.84 5.262 12 10.104 12h2.039a.822.822 0 00.57-.227.76.76 0 00.235-.547v-1.183a.74.74 0 01.13-.418.785.785 0 01.347-.28.82.82 0 01.856.143l2.44 2.204c.219.198.508.308.809.308h3.204c1.545 0 1.545-1.03.702-1.828-.593-.562-2.732-2.73-2.732-2.73a1.034 1.034 0 01-.085-1.38 905.52 905.52 0 002.302-2.92c.656-.838 1.843-2.615.216-2.615z" fill="#fff"/></svg>
